www/assets/icons/filter_alt_outline.svg

<svg width="24" height="24" viewBox="0 0 24 24" xmlns="http://www.w3.org/2000/svg" fill='currentColor'><path d="M7.00506 6H17.0051L11.9951 12.3L7.00506 6ZM4.25506 5.61C6.27506 8.2 10.0051 13 10.0051 13V19C10.0051 19.55 10.4551 20 11.0051 20H13.0051C13.5551 20 14.0051 19.55 14.0051 19V13C14.0051 13 17.7251 8.2 19.7451 5.61C20.2551 4.95 19.7851 4 18.9551 4H5.04506C4.21506 4 3.74506 4.95 4.25506 5.61Z"/></svg>

<svg xmlns="http://www.w3.org/2000/svg" width="24" height="24" viewBox="0 0 24 24" fill='currentColor'><path d="M7.005 6h10l-5.01 6.3zm-2.75-.39c2.02 2.59 5.75 7.39 5.75 7.39v6c0 .55.45 1 1 1h2c.55 0 1-.45 1-1v-6s3.72-4.8 5.74-7.39a.998.998 0 0 0-.79-1.61H5.045c-.83 0-1.3.95-.79 1.61"/></svg>
